client/public/static/images/ic/ic_smart_forms.svg

<svg fill="none" height="48" viewBox="0 0 56 48" width="56" xmlns="http://www.w3.org/2000/svg" xmlns:xlink="http://www.w3.org/1999/xlink"><linearGradient id="a" gradientUnits="userSpaceOnUse" x1=".366519" x2="54.6662" y1="10.0251" y2="16.1738"><stop offset="0" stop-color="#938eff"/><stop offset="1" stop-color="#b0acfb"/></linearGradient><clipPath id="b"><path d="m0 0h56v48h-56z"/></clipPath><g clip-path="url(#b)"><rect fill="url(#a)" height="34.2793" opacity=".4" rx="5" transform="matrix(.999773 -.102905 .0983729 .986376 0 14.1877)" width="52.7787"/><g stroke="#1a202c" stroke-linecap="round" stroke-linejoin="round"><path d="m14.125 10.4359c2.002 0 3.625-1.66459 3.625-3.71795 0-2.05337-1.623-3.71795-3.625-3.71795s-3.625 1.66458-3.625 3.71795c0 2.05336 1.623 3.71795 3.625 3.71795z" fill="#fafdff" stroke-width="3"/><path d="m14 11v5.9632c0 1.4014 1.1349 2.5368 2.5363 2.5368h8.4637" stroke-width="2"/><path d="m14 17.5v12.4653c0 1.4014 1.1349 2.5347 2.5363 2.5347h8.4637" stroke-width="2"/><path d="m28 14h16v9h-16z" fill="#fafdff" stroke-width="3"/><path d="m28 28h16v9h-16z" fill="#fafdff" stroke-width="3"/></g></g></svg>

<svg width="56" height="48" viewBox="0 0 56 48" fill="none" xmlns="http://www.w3.org/2000/svg">
<g clip-path="url(#clip0)">
<rect opacity="0.4" width="52.7787" height="34.2793" rx="5" transform="matrix(0.999773 -0.102905 0.0983729 0.986376 0 14.1877)" fill="url(#paint0_linear)"/>
<path d="M14.125 10.4359C16.127 10.4359 17.75 8.77131 17.75 6.71795C17.75 4.66458 16.127 3 14.125 3C12.123 3 10.5 4.66458 10.5 6.71795C10.5 8.77131 12.123 10.4359 14.125 10.4359Z" fill="#FAFDFF" stroke="#1A202C" stroke-width="3" stroke-linecap="round" stroke-linejoin="round"/>
<path d="M14 11C14 13.4755 14 15.5074 14 16.9632C14 18.3646 15.1349 19.5 16.5363 19.5C18.5424 19.5 21.57 19.5 25 19.5" stroke="#1A202C" stroke-width="2" stroke-linecap="round" stroke-linejoin="round"/>
<path d="M14 17.5C14 21.0653 14 26.7126 14 29.9653C14 31.3667 15.1349 32.5 16.5363 32.5C18.5424 32.5 21.57 32.5 25 32.5" stroke="#1A202C" stroke-width="2" stroke-linecap="round" stroke-linejoin="round"/>
<rect x="28" y="14" width="16" height="9" fill="#FAFDFF" stroke="#1A202C" stroke-width="3" stroke-linecap="round" stroke-linejoin="round"/>
<rect x="28" y="28" width="16" height="9" fill="#FAFDFF" stroke="#1A202C" stroke-width="3" stroke-linecap="round" stroke-linejoin="round"/>
</g>
<defs>
<linearGradient id="paint0_linear" x1="0.366519" y1="10.0251" x2="54.6662" y2="16.1738" gradientUnits="userSpaceOnUse">
<stop stop-color="#938EFF"/>
<stop offset="1" stop-color="#B0ACFB"/>
</linearGradient>
<clipPath id="clip0">
<rect width="56" height="48" fill="white"/>
</clipPath>
</defs>
</svg>
